libs/icons/src/svg/subscript.svg

<svg width="16" height="16" viewBox="0 0 16 16" fill="none" xmlns="http://www.w3.org/2000/svg">
<g clip-path="url(#clip0_4_325)">
<path fill-rule="evenodd" clip-rule="evenodd" d="M0.761905 0C0.341117 0 0 0.341117 0 0.761905V2.28572C0 2.7065 0.341117 3.04762 0.761905 3.04762C1.18269 3.04762 1.52381 2.7065 1.52381 2.28572V1.52381H6.09524V12.9524H3.80953C3.38874 12.9524 3.04762 13.2935 3.04762 13.7143C3.04762 14.1351 3.38874 14.4762 3.80953 14.4762H6.85715H9.90477C10.3256 14.4762 10.6667 14.1351 10.6667 13.7143C10.6667 13.2935 10.3256 12.9524 9.90477 12.9524H7.61905V1.52381H12.1905V2.28572C12.1905 2.7065 12.5316 3.04762 12.9524 3.04762C13.3732 3.04762 13.7143 2.7065 13.7143 2.28572V0.761905C13.7143 0.341117 13.3732 0 12.9524 0H6.85715H0.761905ZM12.4267 15.2808V16H16V14.5455H15.1802L15.072 15.1566C15.0568 15.2343 15.0255 15.2495 14.9486 15.2495H13.811L14.685 14.4137L14.6909 14.408C15.2531 13.8694 15.7524 13.391 15.7524 12.6659C15.7524 11.9391 15.3272 11.4286 14.128 11.4286C13.3158 11.4286 12.3802 11.6297 12.3733 12.8602L13.4248 12.9531C13.4248 12.4038 13.6023 12.2644 14.0282 12.2644C14.4381 12.2644 14.5775 12.4731 14.5775 12.7596C14.5775 13.1867 14.2643 13.4906 13.533 14.2001C13.5103 14.2221 13.4872 14.2446 13.4636 14.2674L12.4267 15.2808Z" fill="#202327"/>
</g>
<defs>
<clipPath id="clip0_4_325">
<rect width="16" height="16" fill="white"/>
</clipPath>
</defs>
</svg>

<svg xmlns="http://www.w3.org/2000/svg" viewBox="0 0 16 16" class="sageicon"><path fill-rule="evenodd" d="M.762 0A.762.762 0 0 0 0 .762v1.524a.762.762 0 0 0 1.524 0v-.762h4.571v11.428H3.81a.762.762 0 1 0 0 1.524H9.905a.762.762 0 1 0 0-1.524H7.619V1.524h4.572v.762a.762.762 0 1 0 1.523 0V.762A.762.762 0 0 0 12.952 0H.762Zm11.665 15.28V16H16v-1.454h-.82l-.108.61c-.015.078-.046.093-.123.093H13.81l.874-.835.006-.006c.562-.539 1.061-1.017 1.061-1.742 0-.727-.425-1.237-1.624-1.237-.812 0-1.748.2-1.755 1.431l1.052.093c0-.55.177-.689.603-.689.41 0 .55.21.55.496 0 .427-.314.73-1.045 1.44l-.07.067-1.036 1.014Z"/></svg>
